Catalina-dark/actions/16/labplot-xy-plot-four-axes.svg

<?xml version="1.0" encoding="UTF-8" standalone="no"?>
<svg
   xmlns:dc="http://purl.org/dc/elements/1.1/"
   xmlns:cc="http://creativecommons.org/ns#"
   xmlns:rdf="http://www.w3.org/1999/02/22-rdf-syntax-ns#"
   xmlns:svg="http://www.w3.org/2000/svg"
   xmlns="http://www.w3.org/2000/svg"
   xmlns:sodipodi="http://sodipodi.sourceforge.net/DTD/sodipodi-0.dtd"
   xmlns:inkscape="http://www.inkscape.org/namespaces/inkscape"
   width="16"
   height="16"
   viewBox="0 0 16 16"
   version="1.1"
   id="svg7"
   sodipodi:docname="labplot-xy-plot-four-axes.svg"
   inkscape:version="0.92.4 5da689c313, 2019-01-14">
  <metadata
     id="metadata11">
    <rdf:RDF>
      <cc:Work
         rdf:about="">
        <dc:format>image/svg+xml</dc:format>
        <dc:type
           rdf:resource="http://purl.org/dc/dcmitype/StillImage" />
      </cc:Work>
    </rdf:RDF>
  </metadata>
  <sodipodi:namedview
     pagecolor="#ffffff"
     bordercolor="#666666"
     borderopacity="1"
     objecttolerance="10"
     gridtolerance="10"
     guidetolerance="10"
     inkscape:pageopacity="0"
     inkscape:pageshadow="2"
     inkscape:window-width="640"
     inkscape:window-height="480"
     id="namedview9"
     showgrid="false"
     inkscape:zoom="14.75"
     inkscape:cx="6.8135593"
     inkscape:cy="8"
     inkscape:window-x="0"
     inkscape:window-y="26"
     inkscape:window-maximized="0"
     inkscape:current-layer="svg7" />
  <defs
     id="defs3">
    <style
       id="current-color-scheme"
       type="text/css">
   .ColorScheme-Text { color:#5c616c; } .ColorScheme-Highlight { color:#5294e2; }
  </style>
  </defs>
  <path
     style="fill:#f1f6f8;fill-opacity:0.8509804"
     class="ColorScheme-Text"
     d="M 0 0 L 0 16 L 16 16 L 16 0 L 1 0 L 0 0 z M 1 1 L 13.71875 1 L 13.25 1.46875 L 12.4375 2.28125 L 11.125 3.59375 L 9 1.46875 L 7.46875 3 L 7 3.46875 L 6.15625 4.28125 L 4.46875 6 L 1 6 L 1 1 z M 15 1.125 L 15 14.84375 L 14.71875 14.5625 L 13.96875 13.8125 L 13.125 13 L 11.84375 11.6875 L 11.125 11 L 9 13.09375 L 7.6875 11.8125 L 6.875 11 L 4.875 9 L 1 9 L 1 7 L 4.875 7 L 6.875 5 L 7.6875 4.15625 L 9 2.875 L 11.125 5 L 13.125 3 L 13.96875 2.15625 L 15 1.125 z M 1 10 L 4.46875 10 L 6.15625 11.6875 L 7 12.53125 L 7.46875 13 L 9 14.53125 L 9.53125 14 L 11.125 12.40625 L 12.4375 13.6875 L 12.9375 14.21875 L 13.25 14.53125 L 13.28125 14.5625 L 13.71875 15 L 1 15 L 1 10 z"
     id="path5" />
</svg>

<svg width="16" height="16" version="1.1" viewBox="0 0 16 16" xmlns="http://www.w3.org/2000/svg">
<defs>
<style id="current-color-scheme" type="text/css">.ColorScheme-Text { color:#5c616c; } .ColorScheme-Highlight { color:#5294e2; }</style>
</defs>
<path class="ColorScheme-Text" d="m0 0v16h16v-16h-15-1zm1 1h12.719l-2.5938 2.5938-2.125-2.125-2 2-0.84375 0.8125-1.6875 1.7188h-3.4688v-5zm14 0.125v13.719l-1.0312-1.0312-0.84375-0.8125-1.2812-1.3125-0.71875-0.6875-2.125 2.0938-1.3125-1.2812-2.8125-2.8125h-3.875v-2h3.875l2-2 0.8125-0.84375 1.3125-1.2812 2.125 2.125 3.875-3.875zm-14 8.875h3.4688l4.5312 4.5312 2.125-2.125 1.3125 1.2812 0.5 0.53125 0.78125 0.78125h-12.719v-5z" fill="#f1f6f8" fill-opacity=".85098"/>
</svg>
